OK-Plus/Components/Asset Tree Template/Icons/Final Icons/task.svg

<svg xmlns="http://www.w3.org/2000/svg" width="24" height="24">
  <g fill="none" fill-rule="evenodd" stroke="#000">
    <path d="M23.1984473 5.87854233c-.0249984-.0805579-.092263-.14454341-.1817138-.16784622-.0849097-.02281877-.1744244.00076468-.239224.06347023L18.665854 9.72669622l-3.4534816-.67964078-.6926063-3.40939737.1982485-.19055058 3.9677075-3.81364235c.0607569-.05833046.0851863-.14146749.0660056-.22014377-.0198537-.0814364-.0821061-.14728857-.1651662-.17306089C17.8322427 1.00834275 17.1511973.89648438 16.5.89648438c-3.8612048 0-7 3.08694173-7 6.87609863 0 .43915601.05287897.88486898.16470493 1.37977254l.06848226.30307915-.24142158.19560782c-.71675185.58073628-1.25769623.98848998-2.57028253 1.95293258-2.0465969 1.503191-3.10423992 2.3121848-4.74308365 3.6731151C1.11022801 16.1951287.5 17.492657.5 18.836731.5 21.4058811 2.62929521 23.5 5.25 23.5c1.38574667 0 2.70495101-.6090762 3.61528047-1.6716341 1.42240203-1.639968 2.30338373-2.7468651 3.79572433-4.7090252.9275533-1.2197465 1.3592089-1.7729225 1.9387546-2.466746l.1949108-.2333443.296858.0656897c.5022485.111139.9584139.1637415 1.4084718.1637415 3.8612048 0 7-3.0869417 7-6.87609859 0-.59452639-.0946215-1.19311406-.3015472-1.89404194z"/>
    <path d="M5.25 20.3119507c-.8295 0-1.5-.6594232-1.5-1.4752197 0-.8157966.6705-1.4752198 1.5-1.4752198s1.5.6594232 1.5 1.4752198c0 .8157965-.6705 1.4752197-1.5 1.4752197z"/>
  </g>
</svg>

<svg xmlns="http://www.w3.org/2000/svg" width="24" height="24" viewBox="0 0 24 24">
  <g fill="none" fill-rule="evenodd">
    <path stroke="#000" d="M23.1984473,5.87854233 C23.1734489,5.79798443 23.1061843,5.73399892 23.0167335,5.71069611 C22.9318238,5.68787734 22.8423091,5.71146079 22.7775095,5.77416634 L18.665854,9.72669622 L15.2123724,9.04705544 L14.5197661,5.63765807 L14.7180146,5.44710749 L18.6857221,1.63346514 C18.746479,1.57513468 18.7709084,1.49199765 18.7517277,1.41332137 C18.731874,1.33188497 18.6696216,1.2660328 18.5865615,1.24026048 C17.8322427,1.00834275 17.1511973,0.896484375 16.5,0.896484375 C12.6387952,0.896484375 9.5,3.98342611 9.5,7.77258301 C9.5,8.21173902 9.55287897,8.65745199 9.66470493,9.15235555 L9.73318719,9.4554347 L9.49176561,9.65104252 C8.77501376,10.2317788 8.23406938,10.6395325 6.92148308,11.6039751 C4.87488618,13.1071661 3.81724316,13.9161599 2.17839943,15.2770902 C1.11022801,16.1951287 0.5,17.492657 0.5,18.836731 C0.5,21.4058811 2.62929521,23.5 5.25,23.5 C6.63574667,23.5 7.95495101,22.8909238 8.86528047,21.8283659 C10.2876825,20.1883979 11.1686642,19.0815008 12.6610048,17.1193407 C13.5885581,15.8995942 14.0202137,15.3464182 14.5997594,14.6525947 L14.7946702,14.4192504 L15.0915282,14.4849401 C15.5937767,14.5960791 16.0499421,14.6486816 16.5,14.6486816 C20.3612048,14.6486816 23.5,11.5617399 23.5,7.77258301 C23.5,7.17805662 23.4053785,6.57946895 23.1984528,5.87854107 Z"/>
    <path stroke="#000" d="M5.25,20.3119507 C4.4205,20.3119507 3.75,19.6525275 3.75,18.836731 C3.75,18.0209344 4.4205,17.3615112 5.25,17.3615112 C6.0795,17.3615112 6.75,18.0209344 6.75,18.836731 C6.75,19.6525275 6.0795,20.3119507 5.25,20.3119507 Z"/>
  </g>
</svg>
